X:1
T:Title
%%score 1 2
L:1/8
Q:1/4=100
M:4/4
K:Ab
V:1 treble nm="Grand Piano, Piano"
V:2 bass nm="Grand Piano, Piano"
V:1
 [CE]2 [CE]2- [CE][DF][CE][B,D] | [A,C]8 | [CE]2 [CE]2- [CE][DF][CE][B,D] | %3
w: 1.~I~ will~ * not~ be~ a|fraid,~|1.~I~ will~ * not~ be~ a|
 [A,C]4- [A,C][A,C][B,D][CE] | [DF]2 [DF]2- [DF][EG][FA][=EB] | [Ec]2 [Ec]4 [=DA]2 | %6
w: fraid;~ * I~ will~ look~|up ward,~ * And~ tra vel~|on ward,~ And~|
 [Ec]2 [Ec]4 [DB]2 | [CA]8 |] %8
w: not~ be~ a|fraid.~|
V:2
 [A,,A,]2 [A,,A,]2- [A,,A,][A,,A,][E,G,][E,G,] | [A,,E,]8 | %2
 [A,,A,]2 [A,,A,]2- [A,,A,][A,,A,][E,G,][E,G,] | [A,,E,]4- [A,,E,][A,,E,][A,,E,][A,,A,] | %4
 [D,A,]2 [D,A,]2- [D,A,][D,A,][D,A,][D,A,] | [E,A,]2 [E,A,]4 [F,B,]2 | [E,A,]2 [E,G,]4 [E,G,]2 | %7
 [A,,E,]8 |] %8

